site/.vuepress/public/images/background-shapes-blue.svg

<svg width="1440px" height="1526px" viewBox="0 0 1440 1526" version="1.1" xmlns="http://www.w3.org/2000/svg" xmlns:xlink="http://www.w3.org/1999/xlink">
    <defs>
        <polygon id="path-1" points="2.49177686e-13 0 1440 0 1440 1526 0 1526"></polygon>
        <polygon id="path-3" points="0.658241368 0.886585527 250.859375 0.886585527 250.859375 278.417965 0.658241368 278.417965"></polygon>
        <polygon id="path-5" points="0 0.25176431 382.835155 0.25176431 382.835155 425.907237 0 425.907237"></polygon>
        <polygon id="path-7" points="0.0437452769 0.296740077 396.777016 0.296740077 396.777016 440.597243 0.0437452769 440.597243"></polygon>
        <polygon id="path-9" points="0.236154545 0.197941176 5.85324545 0.197941176 5.85324545 14.8637353 0.236154545 14.8637353"></polygon>
        <polygon id="path-11" points="0.135970588 0.1464 14.8023529 0.1464 14.8023529 5.76376364 0.135970588 5.76376364"></polygon>
        <polygon id="path-13" points="0.161934545 0.131960784 4.01365403 0.131960784 4.01365403 9.90915686 0.161934545 9.90915686"></polygon>
        <polygon id="path-15" points="0.0932369748 0.0976 10.1501849 0.0976 10.1501849 3.84250909 0.0932369748 3.84250909"></polygon>
        <polygon id="path-17" points="0.161934545 0.131960784 4.01365403 0.131960784 4.01365403 9.90915686 0.161934545 9.90915686"></polygon>
        <polygon id="path-19" points="0.0932369748 0.0976 10.1501849 0.0976 10.1501849 3.84250909 0.0932369748 3.84250909"></polygon>
        <polygon id="path-21" points="0.188923636 0.153954248 4.68259636 0.153954248 4.68259636 11.560683 0.188923636 11.560683"></polygon>
        <polygon id="path-23" points="0.108776471 0.113866667 11.8418824 0.113866667 11.8418824 4.48292727 0.108776471 4.48292727"></polygon>
    </defs>
    <g id="Desktop" stroke="none" stroke-width="1" fill="none" fill-rule="evenodd">
        <g id="OS-Home" transform="translate(0.000000, -773.000000)">
            <g id="bg-misc" transform="translate(0.000000, 773.000000)">
                <g id="bg">
                    <mask id="mask-2" fill="white">
                        <use xlink:href="#path-1"></use>
                    </mask>
                    <use id="Mask" fill="#133E68" transform="translate(720.000000, 763.000000) scale(1, -1) translate(-720.000000, -763.000000) " xlink:href="#path-1"></use>
                    <g id="misc" opacity="0.303478423" mask="url(#mask-2)">
                        <g transform="translate(1170.000000, -287.000000)">
                            <path d="M293.805031,13.3108364 L12,326.963437 C13.5527822,331.929727 15.2323055,336.829582 17.0581942,341.6448 L307,18.939663 C302.670362,16.9092811 298.269586,15.0408929 293.805031,13.3108364" id="Fill-6" fill="#FEFEFE"></path>
                            <path d="M348.521109,44.3694545 L40,386.592198 C42.499184,390.551197 45.0933255,394.430289 47.7922477,398.215855 L359,53.0138736 C355.588078,50.0182918 352.089384,47.1389375 348.521109,44.3694545" id="Fill-8" fill="#FEFEFE"></path>
                            <path d="M390.913871,87.6296727 L79,433.616742 C82.3118284,436.71151 85.6972712,439.711013 89.1702332,442.585309 L399,98.9118302 C396.407956,95.0585674 393.703038,91.3041993 390.913871,87.6296727" id="Fill-10" fill="#FEFEFE"></path>
                            <path d="M422.571053,143.091491 L129,469.822954 C133.20353,471.980159 137.479,473.99725 141.820685,475.8624 L428,157.358521 C426.321694,152.528239 424.510955,147.769832 422.571053,143.091491" id="Fill-12" fill="#FEFEFE"></path>
                            <g id="Group-16" stroke-width="1" fill="none" transform="translate(192.000000, 212.973382)">
                                <mask id="mask-4" fill="white">
                                    <use xlink:href="#path-3"></use>
                                </mask>
                                <g id="Clip-15"></g>
                                <path d="M249.292955,0.886585527 L0.658241368,276.681251 C6.15734886,277.487485 11.7210459,278.066087 17.3403391,278.417965 L250.859456,19.390068 C250.542232,13.1587575 250.021427,6.98458172 249.292955,0.886585527" id="Fill-14" fill="#FEFEFE" mask="url(#mask-4)"></path>
                            </g>
                        </g>
                    </g>
                    <g id="misc" opacity="0.303478423" mask="url(#mask-2)">
                        <g transform="translate(276.402472, 281.383908) rotate(95.000000) translate(-276.402472, -281.383908) translate(-75.097528, -109.116092)">
                            <path d="M185.876588,45.5338941 L41.0283807,206.288112 C32.206807,224.568228 24.6534648,243.713384 18.5,263.581818 L237.5,20.5316364 C219.598775,27.3564832 202.347958,35.7421629 185.876588,45.5338941" id="Fill-1" fill="#000102"></path>
                            <g id="Group-5" stroke-width="1" fill="none" transform="translate(0.500000, 0.554909)">
                                <mask id="mask-6" fill="white">
                                    <use xlink:href="#path-5"></use>
                                </mask>
                                <g id="Clip-4"></g>
                                <path d="M355.415719,0.251476579 L-0.000517567568,395.426492 C0.135343919,405.684089 0.627033108,415.849613 1.46161081,425.907237 L382.835155,1.87859335 C373.789368,0.946346074 364.64783,0.401096512 355.415719,0.251476579" id="Fill-3" fill="#000102" mask="url(#mask-6)"></path>
                            </g>
                            <path d="M465.611693,21.6414545 L19.5,518.871956 C21.9581332,526.744969 24.6169039,534.512663 27.5073786,542.146182 L486.5,30.5647802 C479.645964,27.3460349 472.679311,24.3840968 465.611693,21.6414545" id="Fill-6" fill="#000102"></path>
                            <path d="M552.878311,70.4734545 L63.5,613.59426 C67.4642228,619.877345 71.579068,626.033615 75.860117,632.041455 L569.5,84.1924838 C564.087985,79.438379 558.538333,74.8687318 552.878311,70.4734545" id="Fill-8" fill="#000102"></path>
                            <path d="M125.5,687.742974 C130.747178,692.648819 136.110989,697.403648 141.613463,701.96 L632.5,157.166726 C628.393231,151.058511 624.107625,145.107064 619.68854,139.282182 L125.5,687.742974 Z" id="Fill-10" fill="#000102"></path>
                            <path d="M669.893576,226.957818 L204.5,744.553983 C211.16379,747.971349 217.941625,751.166752 224.824431,754.121455 L678.5,249.559132 C675.839408,241.907172 672.968873,234.369077 669.893576,226.957818" id="Fill-12" fill="#000102"></path>
                            <g id="Group-16" stroke-width="1" fill="none" transform="translate(305.500000, 339.049455)">
                                <mask id="mask-8" fill="white">
                                    <use xlink:href="#path-7"></use>
                                </mask>
                                <g id="Clip-15"></g>
                                <path d="M394.293211,0.296740077 L0.0437452769,437.841965 C8.7634456,439.121047 17.5855629,440.038993 26.4958365,440.597243 L396.777146,29.6523131 C396.274136,19.766407 395.448319,9.97114446 394.293211,0.296740077" id="Fill-14" fill="#000102" mask="url(#mask-8)"></path>
                            </g>
                            <path d="M675.260384,541.304558 C681.289971,525.446809 686.378938,509.049798 690.5,492.204364 L443.5,766.329455 C458.675955,761.76015 473.449158,756.113765 487.73646,749.42202 L675.260384,541.304558 Z" id="Fill-17" fill="#000102"></path>
                        </g>
                    </g>
                </g>
                <g id="Star" transform="translate(720.000000, 37.000000)">
                    <g id="Group-11">
                        <path d="M20,21 L14,21 L14,32.9019974 C14,34.6129828 15.3435619,36 17,36 C18.6570208,36 20,34.6129828 20,32.9019974 L20,21 Z" id="Fill-1" fill="#FEFEFE"></path>
                        <g id="Group-5" transform="translate(14.000000, 0.000000)">
                            <mask id="mask-10" fill="white">
                                <use xlink:href="#path-9"></use>
                            </mask>
                            <g id="Clip-4"></g>
                            <path d="M5.85324545,3.22667647 C5.85324545,1.55344118 4.59597273,0.197852941 3.04497273,0.197852941 C2.26960909,0.197852941 1.56733636,0.536676471 1.05897273,1.08491176 C0.550609091,1.63255882 0.236154545,2.39020588 0.236154545,3.22667647 L0.236154545,14.8637353 L5.85324545,14.8637353 L5.85324545,3.22667647 Z" id="Fill-3" fill="#FEFEFE" mask="url(#mask-10)"></path>
                        </g>
                        <path d="M2.89146914,15 C1.29398789,15 0,16.3432053 0,18.0001457 C0,18.8289071 0.323426784,19.5784338 0.847310793,20.1211341 C1.36979104,20.6635432 2.09272851,21 2.89146914,21 L14,21 L14,15 L2.89146914,15 Z" id="Fill-6" fill="#FEFEFE"></path>
                        <g id="Group-10" transform="translate(20.000000, 15.000000)">
                            <mask id="mask-12" fill="white">
                                <use xlink:href="#path-11"></use>
                            </mask>
                            <g id="Clip-9"></g>
                            <path d="M11.7739118,5.76376364 C13.4459706,5.76376364 14.8024412,4.50649091 14.8024412,2.95521818 C14.8024412,1.40394545 13.4465588,0.1464 11.7739118,0.1464 L0.135970588,0.1464 L0.135970588,5.76376364 L11.7739118,5.76376364 Z" id="Fill-8" fill="#FEFEFE" mask="url(#mask-12)"></path>
                        </g>
                    </g>
                </g>
                <g id="Star" transform="translate(1262.000000, 566.000000)">
                    <g id="Group-11">
                        <path d="M13.7142857,14 L9.6,14 L9.6,21.9346649 C9.6,23.0753219 10.5212996,24 11.6571429,24 C12.7933857,24 13.7142857,23.0753219 13.7142857,21.9346649 L13.7142857,14 Z" id="Fill-1" fill="#FEFEFE"></path>
                        <g id="Group-5" transform="translate(9.600000, 0.000000)">
                            <mask id="mask-14" fill="white">
                                <use xlink:href="#path-13"></use>
                            </mask>
                            <g id="Clip-4"></g>
                            <path d="M4.01365403,2.15111765 C4.01365403,1.03562745 3.15152416,0.131901961 2.0879813,0.131901961 C1.55630338,0.131901961 1.07474494,0.357784314 0.726152727,0.72327451 C0.377560519,1.08837255 0.161934545,1.59347059 0.161934545,2.15111765 L0.161934545,9.90915686 L4.01365403,9.90915686 L4.01365403,2.15111765 Z" id="Fill-3" fill="#FEFEFE" mask="url(#mask-14)"></path>
                        </g>
                        <path d="M1.98272169,10 C0.88730598,10 0,10.8954702 0,12.0000971 C0,12.5526047 0.221778366,13.0522892 0.581013115,13.4140894 C0.939285285,13.7756955 1.43501384,14 1.98272169,14 L9.6,14 L9.6,10 L1.98272169,10 Z" id="Fill-6" fill="#FEFEFE"></path>
                        <g id="Group-10" transform="translate(13.714286, 10.000000)">
                            <mask id="mask-16" fill="white">
                                <use xlink:href="#path-15"></use>
                            </mask>
                            <g id="Clip-9"></g>
                            <path d="M8.0735395,3.84250909 C9.22009412,3.84250909 10.1502454,3.00432727 10.1502454,1.97014545 C10.1502454,0.935963636 9.22049748,0.0976 8.0735395,0.0976 L0.0932369748,0.0976 L0.0932369748,3.84250909 L8.0735395,3.84250909 Z" id="Fill-8" fill="#FEFEFE" mask="url(#mask-16)"></path>
                        </g>
                    </g>
                </g>
                <g id="Star" transform="translate(588.000000, 1014.000000)">
                    <g id="Group-11">
                        <path d="M13.7142857,14 L9.6,14 L9.6,21.9346649 C9.6,23.0753219 10.5212996,24 11.6571429,24 C12.7933857,24 13.7142857,23.0753219 13.7142857,21.9346649 L13.7142857,14 Z" id="Fill-1" fill="#FEFEFE"></path>
                        <g id="Group-5" transform="translate(9.600000, 0.000000)">
                            <mask id="mask-18" fill="white">
                                <use xlink:href="#path-17"></use>
                            </mask>
                            <g id="Clip-4"></g>
                            <path d="M4.01365403,2.15111765 C4.01365403,1.03562745 3.15152416,0.131901961 2.0879813,0.131901961 C1.55630338,0.131901961 1.07474494,0.357784314 0.726152727,0.72327451 C0.377560519,1.08837255 0.161934545,1.59347059 0.161934545,2.15111765 L0.161934545,9.90915686 L4.01365403,9.90915686 L4.01365403,2.15111765 Z" id="Fill-3" fill="#FEFEFE" mask="url(#mask-18)"></path>
                        </g>
                        <path d="M1.98272169,10 C0.88730598,10 0,10.8954702 0,12.0000971 C0,12.5526047 0.221778366,13.0522892 0.581013115,13.4140894 C0.939285285,13.7756955 1.43501384,14 1.98272169,14 L9.6,14 L9.6,10 L1.98272169,10 Z" id="Fill-6" fill="#FEFEFE"></path>
                        <g id="Group-10" transform="translate(13.714286, 10.000000)">
                            <mask id="mask-20" fill="white">
                                <use xlink:href="#path-19"></use>
                            </mask>
                            <g id="Clip-9"></g>
                            <path d="M8.0735395,3.84250909 C9.22009412,3.84250909 10.1502454,3.00432727 10.1502454,1.97014545 C10.1502454,0.935963636 9.22049748,0.0976 8.0735395,0.0976 L0.0932369748,0.0976 L0.0932369748,3.84250909 L8.0735395,3.84250909 Z" id="Fill-8" fill="#FEFEFE" mask="url(#mask-20)"></path>
                        </g>
                    </g>
                </g>
                <g id="Star" transform="translate(822.000000, 1311.000000)">
                    <g id="Group-11">
                        <path d="M16,16.3333333 L11.2,16.3333333 L11.2,25.5904424 C11.2,26.9212088 12.2748495,28 13.6,28 C14.9256166,28 16,26.9212088 16,25.5904424 L16,16.3333333 Z" id="Fill-1" fill="#FEFEFE"></path>
                        <g id="Group-5" transform="translate(11.200000, 0.000000)">
                            <mask id="mask-22" fill="white">
                                <use xlink:href="#path-21"></use>
                            </mask>
                            <g id="Clip-4"></g>
                            <path d="M4.68259636,2.50963725 C4.68259636,1.20823203 3.67677818,0.153885621 2.43597818,0.153885621 C1.81568727,0.153885621 1.25386909,0.417415033 0.847178182,0.843820261 C0.440487273,1.26976797 0.188923636,1.85904902 0.188923636,2.50963725 L0.188923636,11.560683 L4.68259636,11.560683 L4.68259636,2.50963725 Z" id="Fill-3" fill="#FEFEFE" mask="url(#mask-22)"></path>
                        </g>
                        <path d="M2.31317531,11.6666667 C1.03519031,11.6666667 0,12.7113819 0,14.0001133 C0,14.6447055 0.258741427,15.2276707 0.677848634,15.649771 C1.09583283,16.0716447 1.67418281,16.3333333 2.31317531,16.3333333 L11.2,16.3333333 L11.2,11.6666667 L2.31317531,11.6666667 Z" id="Fill-6" fill="#FEFEFE"></path>
                        <g id="Group-10" transform="translate(16.000000, 11.666667)">
                            <mask id="mask-24" fill="white">
                                <use xlink:href="#path-23"></use>
                            </mask>
                            <g id="Clip-9"></g>
                            <path d="M9.41912941,4.48292727 C10.7567765,4.48292727 11.8419529,3.50504848 11.8419529,2.29850303 C11.8419529,1.09195758 10.7572471,0.113866667 9.41912941,0.113866667 L0.108776471,0.113866667 L0.108776471,4.48292727 L9.41912941,4.48292727 Z" id="Fill-8" fill="#FEFEFE" mask="url(#mask-24)"></path>
                        </g>
                    </g>
                </g>
            </g>
        </g>
    </g>
</svg>

<?xml version="1.0" encoding="utf-8"?>
<!-- Generator: Adobe Illustrator 23.0.0, SVG Export Plug-In . SVG Version: 6.00 Build 0)  -->
<svg version="1.1" id="Layer_1" xmlns="http://www.w3.org/2000/svg" xmlns:xlink="http://www.w3.org/1999/xlink" x="0px" y="0px"
	 viewBox="0 0 1440 1526" style="enable-background:new 0 0 1440 1526;" xml:space="preserve">
<style type="text/css">
	.st0{fill-rule:evenodd;clip-rule:evenodd;fill:#133E68;}
	.st1{filter:url(#Adobe_OpacityMaskFilter);}
	.st2{fill-rule:evenodd;clip-rule:evenodd;fill:#FFFFFF;}
	.st3{opacity:0.3035;mask:url(#mask-2_1_);}
	.st4{fill-rule:evenodd;clip-rule:evenodd;fill:#FEFEFE;}
	.st5{filter:url(#Adobe_OpacityMaskFilter_1_);}
	.st6{mask:url(#mask-4_1_);fill-rule:evenodd;clip-rule:evenodd;fill:#FEFEFE;}
	.st7{filter:url(#Adobe_OpacityMaskFilter_2_);}
	.st8{opacity:0.3035;mask:url(#mask-2_2_);}
	.st9{fill-rule:evenodd;clip-rule:evenodd;fill:#000102;}
	.st10{filter:url(#Adobe_OpacityMaskFilter_3_);}
	.st11{mask:url(#mask-6_1_);fill-rule:evenodd;clip-rule:evenodd;fill:#000102;}
	.st12{filter:url(#Adobe_OpacityMaskFilter_4_);}
	.st13{mask:url(#mask-8_1_);fill-rule:evenodd;clip-rule:evenodd;fill:#000102;}
</style>
<g id="Desktop">
	<g id="OS-Home" transform="translate(0.000000, -773.000000)">
		<g id="bg-misc" transform="translate(0.000000, 773.000000)">
			<g id="bg">
				<g id="Mask" transform="translate(720.000000, 763.000000) scale(1, -1) translate(-720.000000, -763.000000) ">
					<polygon class="st0" points="0,1526 1440,1526 1440,0 0,0 					"/>
				</g>
				<defs>
					<filter id="Adobe_OpacityMaskFilter" filterUnits="userSpaceOnUse" x="1182" y="-273.7" width="430.9" height="478.1">
						<feColorMatrix  type="matrix" values="1 0 0 0 0  0 1 0 0 0  0 0 1 0 0  0 0 0 1 0"/>
					</filter>
				</defs>
				<mask maskUnits="userSpaceOnUse" x="1182" y="-273.7" width="430.9" height="478.1" id="mask-2_1_">
					<g class="st1">
						<polygon id="path-1_1_" class="st2" points="0,0 1440,0 1440,1526 0,1526 						"/>
					</g>
				</mask>
				<g id="misc" class="st3">
					<g transform="translate(1170.000000, -287.000000)">
						<path id="Fill-6" class="st4" d="M293.8,13.3L12,327c1.6,5,3.2,9.9,5.1,14.7L307,18.9C302.7,16.9,298.3,15,293.8,13.3"/>
						<path id="Fill-8" class="st4" d="M348.5,44.4L40,386.6c2.5,4,5.1,7.8,7.8,11.6L359,53C355.6,50,352.1,47.1,348.5,44.4"/>
						<path id="Fill-10" class="st4" d="M390.9,87.6L79,433.6c3.3,3.1,6.7,6.1,10.2,9L399,98.9C396.4,95.1,393.7,91.3,390.9,87.6"/>
						<path id="Fill-12" class="st4" d="M422.6,143.1L129,469.8c4.2,2.2,8.5,4.2,12.8,6L428,157.4
							C426.3,152.5,424.5,147.8,422.6,143.1"/>
						<g id="Group-16" transform="translate(192.000000, 212.973382)">
							<g id="Clip-15">
							</g>
							<defs>
								<filter id="Adobe_OpacityMaskFilter_1_" filterUnits="userSpaceOnUse" x="0.7" y="0.9" width="250.2" height="277.5">
									<feColorMatrix  type="matrix" values="1 0 0 0 0  0 1 0 0 0  0 0 1 0 0  0 0 0 1 0"/>
								</filter>
							</defs>
							<mask maskUnits="userSpaceOnUse" x="0.7" y="0.9" width="250.2" height="277.5" id="mask-4_1_">
								<g class="st5">
									<polygon id="path-3_1_" class="st2" points="0.7,0.9 250.9,0.9 250.9,278.4 0.7,278.4 									"/>
								</g>
							</mask>
							<path id="Fill-14" class="st6" d="M249.3,0.9L0.7,276.7c5.5,0.8,11.1,1.4,16.7,1.7l233.5-259C250.5,13.2,250,7,249.3,0.9"/>
						</g>
					</g>
				</g>
				<defs>
					<filter id="Adobe_OpacityMaskFilter_2_" filterUnits="userSpaceOnUse" x="-109.6" y="-70" width="773.8" height="703">
						<feColorMatrix  type="matrix" values="1 0 0 0 0  0 1 0 0 0  0 0 1 0 0  0 0 0 1 0"/>
					</filter>
				</defs>
				<mask maskUnits="userSpaceOnUse" x="-109.6" y="-70" width="773.8" height="703" id="mask-2_2_">
					<g class="st7">
						<polygon id="path-1_2_" class="st2" points="0,0 1440,0 1440,1526 0,1526 						"/>
					</g>
				</mask>
				<g class="st8">
					
						<g transform="translate(276.402472, 281.383908) rotate(95.000000) translate(-276.402472, -281.383908) translate(-75.097528, -109.116092)">
						<path id="Fill-1" class="st9" d="M185.9,45.5L41,206.3c-8.8,18.3-16.4,37.4-22.5,57.3l219-243.1
							C219.6,27.4,202.3,35.7,185.9,45.5"/>
						<g id="Group-5" transform="translate(0.500000, 0.554909)">
							<g id="Clip-4">
							</g>
							<defs>
								<filter id="Adobe_OpacityMaskFilter_3_" filterUnits="userSpaceOnUse">
									<feColorMatrix  type="matrix" values="1 0 0 0 0  0 1 0 0 0  0 0 1 0 0  0 0 0 1 0"/>
								</filter>
							</defs>
							<mask maskUnits="userSpaceOnUse" id="mask-6_1_">
								<g class="st10">
									<polygon id="path-5_1_" class="st2" points="0,0.3 382.8,0.3 382.8,425.9 0,425.9 									"/>
								</g>
							</mask>
							<path id="Fill-3" class="st11" d="M355.4,0.3L0,395.4c0.1,10.3,0.6,20.4,1.5,30.5l381.4-424C373.8,0.9,364.6,0.4,355.4,0.3"
								/>
						</g>
						<path class="st9" d="M465.6,21.6L19.5,518.9c2.5,7.9,5.1,15.6,8,23.3l459-511.6C479.6,27.3,472.7,24.4,465.6,21.6"/>
						<path class="st9" d="M552.9,70.5L63.5,613.6c4,6.3,8.1,12.4,12.4,18.4L569.5,84.2C564.1,79.4,558.5,74.9,552.9,70.5"/>
						<path class="st9" d="M125.5,687.7c5.2,4.9,10.6,9.7,16.1,14.2l490.9-544.8c-4.1-6.1-8.4-12.1-12.8-17.9L125.5,687.7z"/>
						<path class="st9" d="M669.9,227L204.5,744.6c6.7,3.4,13.4,6.6,20.3,9.6l453.7-504.6C675.8,241.9,673,234.4,669.9,227"/>
						<g transform="translate(305.500000, 339.049455)">
							<defs>
								<filter id="Adobe_OpacityMaskFilter_4_" filterUnits="userSpaceOnUse">
									<feColorMatrix  type="matrix" values="1 0 0 0 0  0 1 0 0 0  0 0 1 0 0  0 0 0 1 0"/>
								</filter>
							</defs>
							<mask maskUnits="userSpaceOnUse" id="mask-8_1_">
								<g class="st12">
									<polygon id="path-7_1_" class="st2" points="0,0.3 396.8,0.3 396.8,440.6 0,440.6 									"/>
								</g>
							</mask>
							<path class="st13" d="M394.3,0.3L0,437.8c8.7,1.3,17.5,2.2,26.5,2.8L396.8,29.7C396.3,19.8,395.4,10,394.3,0.3"/>
						</g>
						<path id="Fill-17" class="st9" d="M675.3,541.3c6-15.9,11.1-32.3,15.2-49.1l-247,274.1c15.2-4.6,29.9-10.2,44.2-16.9
							L675.3,541.3z"/>
					</g>
				</g>
			</g>
		</g>
	</g>
</g>
</svg>
